X: 73
T:Gan Ainm
M:4/4
L:1/8
S:Session at Cleary's, Miltown Malbay R:Reel
K:Edor
BEED EFGA|B2eB dBAF|D3F EFDB|ABfd edBA|! 
BEED EFGA|B2eB dBAF|DEFA dBAF|1 EGFD E2ED:|2 EGFD E2Bc||! 
|:d~D3 fedB|e2fe dBAF|~A3B ~d2fd|edef dBBA|!
Be~e2 fedB|e2fe dBAF|DEFA dBAF|1 EGFD E2Bc:|2 EGFD E2ED||
